X: 1483
T: the Butcher's Apron   #2
T: praiscin m-busteoir.
R: reel
%S: s:2 b:16(5+5+6)
B: O'Neill's Music of Ireland, 1483
O: J.O'Neill
Z: John B. Walsh, 8/22/96
N: Compacted via repeats and multiple endings [JC]
M: C|
L: 1/8
K: D
"^A"|: d2(AF) d2(AF) | Efed cABc | defe dcdB |1 AdAF EFGE :|2 ABAG FDD2 |]
"^B"|: a2(fa) dafa | b2(gb) ebgb |1 a2(fa) dafa | gefd ceef :|2 agfe dcdB | ABAG FDD2 |]
